Newaita/actions/24/document-new.svg

<svg height="24" viewBox="0 0 24 24" width="24" xmlns="http://www.w3.org/2000/svg"><path d="m5.953125 2.171875c-1.097656 0-1.984375.886719-1.984375 1.984375v15.875c0 1.101562.886719 1.988281 1.984375 1.988281h11.90625c1.101563 0 1.984375-.886719 1.984375-1.988281v-8.929688h-.003906v-3.96875c0-.261718-.101563-.511718-.289063-.699218l-3.96875-3.96875c-.183593-.183594-.4375-.289063-.699219-.289063h-3.96875v-.003906zm4.960937 1.980469h3.5625l3.390626 3.390625v3.558593h-.007813v7.9375c0 .550782-.441406.992188-.992187.992188h-9.921876c-.550781 0-.992187-.441406-.992187-.992188v-13.890624c0-.550782.441406-.992188.992187-.992188h3.96875zm0 0" fill="#424242"/></svg>

<svg xmlns="http://www.w3.org/2000/svg" xmlns:xlink="http://www.w3.org/1999/xlink" width="24px" height="24px" viewBox="0 0 24 24" version="1.1">
<g id="surface1">
     <defs>
  <style id="current-color-scheme" type="text/css">
   .ColorScheme-Text { color:#424242; } .ColorScheme-Highlight { color:#eeeeee; }
  </style>
 </defs>
<path style="fill:currentColor" class="ColorScheme-Text" d="M 5.953125 2.171875 C 4.855469 2.171875 3.96875 3.058594 3.96875 4.15625 L 3.96875 20.03125 C 3.96875 21.132812 4.855469 22.019531 5.953125 22.019531 L 17.859375 22.019531 C 18.960938 22.019531 19.84375 21.132812 19.84375 20.03125 L 19.84375 11.101562 L 19.839844 11.101562 L 19.839844 7.132812 C 19.839844 6.871094 19.738281 6.621094 19.550781 6.433594 L 15.582031 2.464844 C 15.398438 2.28125 15.144531 2.175781 14.882812 2.175781 L 10.914062 2.175781 L 10.914062 2.171875 Z M 10.914062 4.152344 L 14.476562 4.152344 L 17.867188 7.542969 L 17.867188 11.101562 L 17.859375 11.101562 L 17.859375 19.039062 C 17.859375 19.589844 17.417969 20.03125 16.867188 20.03125 L 6.945312 20.03125 C 6.394531 20.03125 5.953125 19.589844 5.953125 19.039062 L 5.953125 5.148438 C 5.953125 4.597656 6.394531 4.15625 6.945312 4.15625 L 10.914062 4.15625 Z M 10.914062 4.152344 "/>
</g>
</svg>
